assets/icons/network/cellular/hardware-disabled.svg

<?xml version="1.0" encoding="UTF-8" standalone="no"?>
<svg viewBox="0 0 24 24" height="24" width="24" version="1.1" id="svg833" sodipodi:docname="hardware-disabled.svg" inkscape:version="1.1.1 (eb90963e84, 2021-10-02)"
   xmlns:inkscape="http://www.inkscape.org/namespaces/inkscape"
   xmlns:sodipodi="http://sodipodi.sourceforge.net/DTD/sodipodi-0.dtd"
   xmlns="http://www.w3.org/2000/svg"
   xmlns:svg="http://www.w3.org/2000/svg"
   xmlns:rdf="http://www.w3.org/1999/02/22-rdf-syntax-ns#"
   xmlns:cc="http://creativecommons.org/ns#"
   xmlns:dc="http://purl.org/dc/elements/1.1/">
   <metadata id="metadata839">
      <rdf:RDF>
         <cc:Work rdf:about="">
            <dc:format>image/svg+xml</dc:format>
            <dc:type rdf:resource="http://purl.org/dc/dcmitype/StillImage" />
         </cc:Work>
      </rdf:RDF>
   </metadata>
   <defs id="defs837" />
   <sodipodi:namedview pagecolor="#ffffff" bordercolor="#666666" borderopacity="1" objecttolerance="10" gridtolerance="10" guidetolerance="10" inkscape:pageopacity="0" inkscape:pageshadow="2" inkscape:window-width="1920" inkscape:window-height="1043" id="namedview835" showgrid="true" inkscape:zoom="13.75" inkscape:cx="9.8545454" inkscape:cy="8.1454545" inkscape:window-x="1920" inkscape:window-y="0" inkscape:window-maximized="1" inkscape:current-layer="svg833" inkscape:document-rotation="0" inkscape:pagecheckerboard="0">
      <inkscape:grid type="xygrid" id="grid1402" />
      <inkscape:grid type="xygrid" id="grid824" dotted="true" spacingx="0.5" spacingy="0.5" empspacing="10" />
   </sodipodi:namedview>
   <path id="path862" style="color:#000000;fill:#808080;-inkscape-stroke:none" d="M 20.75 2.8964844 L 20.322266 3.3222656 L 11.644531 12 L 12.355469 12 L 20.25 4.1054688 L 20.25 12 L 20.75 12 L 20.75 2.8964844 z M 3 13 L 3 14 L 22 14 L 22 13 L 3 13 z M 8.6464844 15 L 2.8964844 20.75 L 20.75 20.75 L 20.75 15 L 20.25 15 L 20.25 20.25 L 4.1054688 20.25 L 9.3554688 15 L 8.6464844 15 z " />
</svg>

<svg height="24" width="24" xmlns="http://www.w3.org/2000/svg"><path style="color:#000;fill:gray;-inkscape-stroke:none" d="m20.75 2.896-.428.426L11.645 12h.71l7.895-7.895V12h.5V2.896zM3 13v1h19v-1H3zm5.646 2-5.75 5.75H20.75V15h-.5v5.25H4.105L9.355 15h-.709z"/></svg>
